X:16831
T:The High Hill
C: Ed Reavy
B: Where_The_Shannon_Rises, By Ed Reavy
M:C|
R:Reel
K:D
E:10
FG |: AD (3FED A,DDE | FGAc dcAG | AD (3fed A,DFA |\
 \GE=CE G2FG | AD (3FED A,DDE |*
E:9
FGAB {=cd}cBce | dcAG FGAF | GE=CE D2FG ::\
 Addc d2cd | ed (3dcd eddc | AGAB =cBcd |*
e=c {d}(cBc ecdc | Ad{e}d^c d2cd | ed {e}(3dcd edd=c |\
 AGAB =cded |1 =cAGE DEFG :|2 =cAGE d2 ||**
